svgs/sharp-light/chart-simple.svg

<svg xmlns="http://www.w3.org/2000/svg" viewBox="0 0 448 512"><!--! Font Awesome Pro 6.6.0 by @fontawesome - https://fontawesome.com License - https://fontawesome.com/license (Commercial License) Copyright 2024 Fonticons, Inc. --><path d="M256 64l0 384-64 0 0-384 64 0zM192 32l-32 0 0 32 0 384 0 32 32 0 64 0 32 0 0-32 0-384 0-32-32 0-64 0zM96 256l0 192-64 0 0-192 64 0zM32 224L0 224l0 32L0 448l0 32 32 0 64 0 32 0 0-32 0-192 0-32-32 0-64 0zm320-96l64 0 0 320-64 0 0-320zM320 96l0 32 0 320 0 32 32 0 64 0 32 0 0-32 0-320 0-32-32 0-64 0-32 0z"/></svg>

<svg xmlns="http://www.w3.org/2000/svg" viewBox="0 0 448 512"><!--! Font Awesome Pro 6.4.2 by @fontawesome - https://fontawesome.com License - https://fontawesome.com/license (Commercial License) Copyright 2023 Fonticons, Inc. --><path d="M256 64V448H192V64h64zM192 32H160V64 448v32h32 64 32V448 64 32H256 192zM96 256V448H32V256H96zM32 224H0v32V448v32H32 96h32V448 256 224H96 32zm320-96h64V448H352V128zM320 96v32V448v32h32 64 32V448 128 96H416 352 320z"/></svg>
